img/text-flowers/text-flower-2.svg

<svg width="98" height="93" viewBox="0 0 98 93" fill="none" xmlns="http://www.w3.org/2000/svg">
<path d="M57.5724 0.760459L59.6471 0.326172H64.1601L68.9903 2.06332L72.5198 5.10333L74.4082 8.14334L75.3829 12.9205L74.6699 18.5662L72.3391 23.7777L69.211 28.5548L65.7192 32.4634L70.3952 29.4234L76.2788 26.8177L79.6076 25.9491H87.4028L91.4125 27.6863L94.9419 30.7263L96.807 34.2006L97.4646 37.2406L97.1852 42.452L95.3345 46.3606L92.2763 49.8349L88.8776 52.0063L85.9359 53.3092L81.3763 54.1778H74.8118L70.7324 53.7435L76.7002 57.2178L80.6167 60.6921L83.6893 64.6007L85.0976 68.9435L85.438 70.2464L85.2284 74.155L83.3312 78.9321L79.4058 83.275L74.7764 85.4464L73.112 85.8807H68.1887L63.7688 84.1436L59.829 81.1036L56.7564 77.195L55.642 75.0236L53.2269 74.155H52.4064L52.1968 78.0636L50.253 83.7093L47.5585 88.0522L44.1133 91.0922L40.5168 92.7425H32.3526L28.9331 91.0922L25.7906 88.4865L23.9022 85.4464L22.9042 81.1036L23.1138 77.195L24.6241 71.9835L27.3419 67.2064L32.6144 60.6921L30.4699 62.4292L24.1295 65.9035L18.2925 67.6407H11.3178L6.89793 65.9035L3.75543 63.2978L1.50335 59.3892L0.82251 56.7835L1.12522 51.1378L2.54233 47.6635L5.19027 44.1892L9.8663 41.1492L16.5239 39.412H23.9088L27.9883 39.8463L22.4074 36.8063L17.6937 32.8977L15.008 29.4234L13.1895 25.0805L12.8724 23.3434L13.1052 19.0005L14.9792 14.6576L17.6271 11.1833L21.8696 8.57763L24.3778 7.70905H30.532L34.1546 9.01191L38.0943 12.0519L40.8033 15.0919L43.7828 20.7377L45.2143 24.6462L46.1601 14.6576L48.0807 9.4462L50.7519 5.53762L54.6307 2.06332L57.5724 0.760459Z" fill="white"/>
<path d="M41.4812 35.4467L47.1524 33.057L51.9 32.9415L56.333 34.3723L59.4009 36.8497L61.1874 39.3958L62.6592 43.4883L62.8496 47.6495L61.7586 51.8794L58.63 56.4967L55.8998 58.5897L51.7409 60.3422L47.5185 60.7076L43.6108 59.5267L40.312 57.6178L37.3279 54.1626L35.7089 49.6609L35.8331 43.9533L37.4493 39.9734L40.4942 36.3339L41.4812 35.4467Z" fill="#EFB74A"/>
</svg>

<svg width="98" height="93" fill="none" xmlns="http://www.w3.org/2000/svg"><path d="M57.572.76l2.075-.434h4.513l4.83 1.737 3.53 3.04 1.888 3.04.975 4.777-.713 5.646-2.33 5.212-3.129 4.777-3.492 3.908 4.676-3.04 5.884-2.605 3.329-.869h7.795l4.01 1.737 3.529 3.04 1.865 3.475.658 3.04-.28 5.211-1.85 3.909-3.059 3.474-3.398 2.171-2.942 1.303-4.56.869h-6.564l-4.08-.434 5.968 3.474 3.917 3.474 3.072 3.909 1.409 4.343.34 1.302-.21 3.909-1.897 4.777-3.925 4.343-4.63 2.171-1.664.435h-4.923l-4.42-1.737-3.94-3.04-3.073-3.909-1.114-2.171-2.415-.869h-.82l-.21 3.909-1.944 5.645-2.694 4.343-3.446 3.04-3.596 1.65h-8.164l-3.42-1.65-3.142-2.605-1.889-3.04-.998-4.343.21-3.909 1.51-5.211 2.718-4.778 5.272-6.514-2.144 1.737-6.34 3.474-5.837 1.738h-6.975l-4.42-1.738-3.143-2.605-2.252-3.909-.68-2.606.302-5.645 1.417-3.474 2.648-3.475 4.676-3.04 6.658-1.737h7.385l4.08.434-5.582-3.04-4.713-3.908-2.686-3.475-1.818-4.342-.318-1.738.233-4.343 1.874-4.342 2.648-3.475 4.243-2.605 2.508-.869h6.154l3.623 1.303 3.94 3.04 2.708 3.04 2.98 5.646 1.431 3.908.946-9.988 1.92-5.212 2.672-3.908 3.879-3.475L57.572.76z" fill="#fff"/><path d="M41.481 35.447l5.671-2.39 4.748-.116 4.433 1.431 3.068 2.478 1.786 2.546 1.472 4.092.19 4.162-1.09 4.23-3.129 4.617-2.73 2.093-4.16 1.752-4.221.366-3.908-1.181-3.299-1.91-2.984-3.454-1.62-4.502.125-5.708 1.616-3.98 3.045-3.64.987-.886z" fill="#EFB74A"/></svg>
